assets/Videocassette/Flat/videocassette_flat.svg

<svg width="32" height="32" viewBox="0 0 32 32" fill="none" xmlns="http://www.w3.org/2000/svg">
<path d="M2 12C2 10.3431 3.34315 9 5 9H27C28.6569 9 30 10.3431 30 12V26C30 27.6569 28.6569 29 27 29H5C3.34315 29 2 27.6569 2 26V12Z" fill="#635994"/>
<path d="M14.5564 13.3774L15.5786 11.6364C15.616 11.5934 15.6617 11.5591 15.7127 11.5356C15.7638 11.5121 15.8191 11.5 15.875 11.5C15.9309 11.5 15.9862 11.5121 16.0373 11.5356C16.0883 11.5591 16.134 11.5934 16.1714 11.6364L17.1936 13.3774C17.23 13.4403 17.2494 13.512 17.25 13.5852C17.2505 13.6585 17.2322 13.7305 17.1968 13.794C17.1613 13.8574 17.1102 13.9099 17.0485 13.9462C16.9869 13.9824 16.917 14.0009 16.846 14H14.904C14.833 14.0009 14.7631 13.9824 14.7015 13.9462C14.6398 13.9099 14.5887 13.8574 14.5532 13.794C14.5178 13.7305 14.4995 13.6585 14.5 13.5852C14.5006 13.512 14.52 13.4403 14.5564 13.3774ZM2 27V24C2 25.6569 3.34315 27 5 27H27C28.6569 27 30 25.6569 30 24V27C30 28.6569 28.6569 30 27 30H5C3.34315 30 2 28.6569 2 27Z" fill="#433B6B"/>
<path d="M5 15C4.44772 15 4 15.4477 4 16V22C4 22.5523 4.44772 23 5 23H10C10.5523 23 11 22.5523 11 22V16C11 15.4477 10.5523 15 10 15H5ZM27 15C27.5523 15 28 15.4477 28 16V22C28 22.5523 27.5523 23 27 23H22C21.4477 23 21 22.5523 21 22V16C21 15.4477 21.4477 15 22 15H27Z" fill="#321B41"/>
<path d="M5 19C5 20.5367 5.57771 21.9385 6.52779 23H10C10.5523 23 11 22.5523 11 22V16C11 15.4477 10.5523 15 10 15H6.52779C5.57771 16.0615 5 17.4633 5 19ZM27 19C27 20.5367 26.4223 21.9385 25.4722 23H22C21.4477 23 21 22.5523 21 22V16C21 15.4477 21.4477 15 22 15H25.4722C26.4223 16.0615 27 17.4633 27 19Z" fill="#F4F4F4"/>
<path d="M11 16C11 15.5634 10.7203 15.1922 10.3303 15.0558C8.43996 15.3744 7 17.019 7 19C7 20.9809 8.43996 22.6255 10.3303 22.9441C10.7203 22.8077 11 22.4365 11 22V16ZM21 16C21 15.5634 21.2797 15.1922 21.6697 15.0558C23.56 15.3744 25 17.019 25 19C25 20.9809 23.56 22.6255 21.6697 22.9441C21.2797 22.8077 21 22.4365 21 22V16Z" fill="#533566"/>
<path d="M12 16C12 15.4477 12.4477 15 13 15H19C19.5523 15 20 15.4477 20 16V22C20 22.5523 19.5523 23 19 23H13C12.4477 23 12 22.5523 12 22V16Z" fill="white"/>
<path d="M11 21C9.89543 21 9 20.1046 9 19C9 17.8954 9.89543 17 11 17V21ZM21 21C22.1046 21 23 20.1046 23 19C23 17.8954 22.1046 17 21 17V21ZM13 18.5C13 18.2239 13.2239 18 13.5 18H18.5C18.7761 18 19 18.2239 19 18.5C19 18.7761 18.7761 19 18.5 19H13.5C13.2239 19 13 18.7761 13 18.5ZM13 20.5C13 20.2239 13.2239 20 13.5 20H18.5C18.7761 20 19 20.2239 19 20.5C19 20.7761 18.7761 21 18.5 21H13.5C13.2239 21 13 20.7761 13 20.5Z" fill="#D3D3D3"/>
<path d="M12 16C12 15.4477 12.4477 15 13 15H19C19.5523 15 20 15.4477 20 16V17H12V16Z" fill="#F70A8D"/>
</svg>

<svg xmlns="http://www.w3.org/2000/svg" width="32" height="32" fill="none"><path fill="#635994" d="M2 12a3 3 0 0 1 3-3h22a3 3 0 0 1 3 3v14a3 3 0 0 1-3 3H5a3 3 0 0 1-3-3V12Z"/><path fill="#433B6B" d="m14.556 13.377 1.023-1.74a.4.4 0 0 1 .296-.137.388.388 0 0 1 .296.136l1.023 1.741a.422.422 0 0 1-.145.57.39.39 0 0 1-.203.053h-1.942a.39.39 0 0 1-.203-.054.407.407 0 0 1-.201-.36c0-.074.02-.146.056-.209ZM2 27v-3a3 3 0 0 0 3 3h22a3 3 0 0 0 3-3v3a3 3 0 0 1-3 3H5a3 3 0 0 1-3-3Z"/><path fill="#321B41" d="M5 15a1 1 0 0 0-1 1v6a1 1 0 0 0 1 1h5a1 1 0 0 0 1-1v-6a1 1 0 0 0-1-1H5Zm22 0a1 1 0 0 1 1 1v6a1 1 0 0 1-1 1h-5a1 1 0 0 1-1-1v-6a1 1 0 0 1 1-1h5Z"/><path fill="#F4F4F4" d="M5 19c0 1.537.578 2.939 1.528 4H10a1 1 0 0 0 1-1v-6a1 1 0 0 0-1-1H6.528A5.978 5.978 0 0 0 5 19Zm22 0a5.978 5.978 0 0 1-1.528 4H22a1 1 0 0 1-1-1v-6a1 1 0 0 1 1-1h3.472A5.978 5.978 0 0 1 27 19Z"/><path fill="#533566" d="M11 16a1 1 0 0 0-.67-.944 4.001 4.001 0 0 0 0 7.888A1 1 0 0 0 11 22v-6Zm10 0a1 1 0 0 1 .67-.944 4.001 4.001 0 0 1 0 7.888A1 1 0 0 1 21 22v-6Z"/><path fill="#fff" d="M12 16a1 1 0 0 1 1-1h6a1 1 0 0 1 1 1v6a1 1 0 0 1-1 1h-6a1 1 0 0 1-1-1v-6Z"/><path fill="#D3D3D3" d="M11 21a2 2 0 1 1 0-4v4Zm10 0a2 2 0 1 0 0-4v4Zm-8-2.5a.5.5 0 0 1 .5-.5h5a.5.5 0 0 1 0 1h-5a.5.5 0 0 1-.5-.5Zm0 2a.5.5 0 0 1 .5-.5h5a.5.5 0 0 1 0 1h-5a.5.5 0 0 1-.5-.5Z"/><path fill="#F70A8D" d="M12 16a1 1 0 0 1 1-1h6a1 1 0 0 1 1 1v1h-8v-1Z"/></svg>
